**kern	**kern
*staff2	*staff1
=1-	=1-
*clefF4	*clefG2
*k[f#c#]	*k[f#c#]
*D:	*D:
*M4/4	*M4/4
8D\	16r
.	16d/LL
8r	16e/
.	16f#/JJ
4r	16g/LL
.	16a/
.	16b/
.	16cc#/JJ
2r	16dd\LL
.	16ee\
.	16ff#\
.	16gg\JJ
.	16aa\LL
.	16bb\
.	16ccc#\
.	16ddd\JJ
=2	=2
8E-\	16eee-\LL
.	16ddd\
8r	16eee-\
.	16fffn\JJ
4r	16ggg\LL
.	16aaa-\
.	16aaan\
.	16bbb-\JJ
8C#/	16bbbn\LL
.	16aaa\
8r	16ggg\
.	16fff\JJ
8BB/	16eeen\LL
.	16ddd\
8r	16ccc#\
.	16bb\JJ
=3	=3
!!linebreak:original
8AA/	16bb-\LL
.	16aa\
8r	16aa-\
.	16gg\JJ
4r	16gg-\LL
.	16bb-\
.	16gg-\
.	16bb-\JJ
8GG/	16gg-\LL
.	16ffn\
8r	16ee\
.	16ee-\JJ
4r	16dd\LL
.	16ff\
.	16dd\
.	16ff\JJ
=4	=4
8FFn/	16ee-\LL
.	16dd\
8r	16ccn\
.	16b\JJ
8EE/	16a/LL
.	16g/
8r	16f#/
.	16e/JJ
8DD/	16d/LL
.	16e/
8r	16f#/
.	16g/JJ
4r	16g#/LL
.	16a/
.	16a#/
.	16b/JJ
=5	=5
!!linebreak:original
8CC#/	16ccn\LL
.	16ee\
8r	16gg\
.	16cccn\JJ
4r	16bb\LL
.	16aa\
.	16gg\
.	16ff#\JJ
8BBB/	16gg\LL
.	16bb\
8r	16ddd\
.	16ggg\JJ
4r	16fff#\LL
.	16fffn\
.	16eee\
.	16ddd#\JJ
=6	=6
8EE/	16eee\LL
.	16ggg\
8r	16bbb\
.	16aaa\JJ
4r	16ggg\LL
.	16fff#\
.	16fffn\
.	16eee\JJ
8r	16eee-\LL
.	16cccn\
8Cn\L	16bb\
.	16aa\JJ
8D\	16ddd\LL
.	16bb\
8E-\J	16aa\
.	16gg\JJ
=7	=7
!!linebreak:original
8Fn\	16cccn\LL
.	16bb\
8r	16aa\
.	16ffn\JJ
8F\	16ccn\LL
.	16dd\
8r	16ee\
.	16ff\JJ
8r	16dd\LL
.	16ee\
8BB/L	16ff\
.	16gg\JJ
8Cn/	16ee\LL
.	16ff\
8D/J	16gg\
.	16aa\JJ
=8	=8
8E\	16bb\LL
.	16aa\
8r	16gg\
.	16ee\JJ
8E-\	16aa\LL
.	16gg\
8r	16ff#\
.	16dd\JJ
8r	16gg\LL
.	16ff#\
8EE/L	16ee\
.	16dd\JJ
8FF#/	16cc#\LL
.	16dd\
8GG#/J	16cc#\
.	16b\JJ
=9	=9
!!linebreak:original
8AA/	16a\LL
.	16b\
8r	16cc#\
.	16dd\JJ
8CC#/	16ee\LL
.	16ff#\
8r	16gg#\
.	16aa\JJ
4r	16aa#\LL
.	16bb\
.	16ccc#\
.	16ddd#\JJ
8E/L	16eee\LL
.	16fff#\
8C#/J	16ggg#\
.	16aaa#\JJ
=10	=10
8BB/	16r
.	16bbb\LL
8r	16aaa#\
.	16ggg#\JJ
4r	16fff#\LL
.	16eee\
.	16ddd#\
.	16ccc#\JJ
8Cn/L	16cccn\LL
.	16bb\
8GG/	16aa\
.	16gg\JJ
8C/J	16ffn\LL
.	16ee\
8r	16dd\
.	16cc#\JJ
=11	=11
!!pagebreak:original
8AA/	16aa\LL
.	16gg\
8r	16ff#\
.	16ee\JJ
4r	16dd\LL
.	16ccn\
.	16b\
.	16a\JJ
8GG/L	16g/LL
.	16a/
8DD/	16g/
.	16f#/JJ
8GG/J	16g/LL
.	16a/
8r	16g/
.	16f#/JJ
=12	=12
8FFn/	16fn/LL
.	16a/
8r	16ccn/
.	16ffn/JJ
4r	16g\LL
.	16b\
.	16dd\
.	16gg\JJ
8r	16dd\LL
.	16ee\
8FF/L	16ff\
.	16gg\JJ
8GG/	16a\LL
.	16cc\
8AA/J	16ee\
.	16aa\JJ
=13	=13
!!linebreak:original
8BB/	16b\LL
.	16dd\
8r	16ffn\
.	16bb\JJ
8BBB/	16ccn\LL
.	16ee\
8r	16gg\
.	16cccn\JJ
8r	16gg\LL
.	16aa\
8BB-/L	16bb\
.	16ccc\JJ
8Cn/	16dd\LL
.	16ff\
8D/J	16aa\
.	16ddd\JJ
=14	=14
8E-\	16ee-\LL
.	16gg\
8r	16bb-\
.	16eee-\JJ
8EE-/	16ddd\LL
.	16cccn\
8r	16bb-\
.	16aa-\JJ
8r	16gg\LL
.	16bbn\
8En\L	16ddd\
.	16ggg\JJ
8Fn\	16aa-\LL
.	16ccc\
8G\J	16eee-\
.	16aaa-\JJ
=15	=15
!!linebreak:original
8A\	16r
.	16aa\LL
8r	16bb\
.	16ccc#\JJ
8AA/	16ddd\LL
.	16eee\
8r	16fff#\
.	16ggg#\JJ
2r	16aaa\LL
.	16eee\
.	16ccc#\
.	16aa\JJ
.	16gg\LL
.	16ff#\
.	16ee-\
.	16dd\JJ
=16	=16
2cn\	16r
.	16ccn\LL
.	16dd\
.	16ee-\JJ
.	16ffn\LL
.	16gg\
.	16aa\
.	16bb\JJ
4G\	16cccn\LL
.	16bb\
.	16aa\
.	16gg\JJ
4d\	16ff\LL
.	16een\
.	16dd\
.	16cc\JJ
=17	=17
!!linebreak:original
2B-\	16r
.	16b-\LL
.	16ccn\
.	16dd-\JJ
.	16ee-\LL
.	16ffn\
.	16gg\
.	16aa\JJ
8D-\L 8Fn\ 8B-\	16bb-\LL
.	16cccn\
8D-\ 8F\ 8cn\	16ddd-\
.	16eee-\JJ
8D-\J 8F\ 8d-\	16fffn\LL
.	16ddd-\
8r	16bb-\
.	16ff\JJ
=18	=18
!!linebreak:original
2.r	16eee\LL
.	16bb\
.	16gg\
.	16ee\JJ
.	16ddd#\LL
.	16bb\
.	16gg#\
.	16dd#\JJ
.	16dddn\LL
.	16aa\
.	16ffn\
.	16ddn\JJ
8c#\L	16ccc#\LL
.	16aa\
8A\J	16ff#\
.	16cc#\JJ
=19	=19
*M3/4	*M3/4
8D\	16bb\LL
.	16aa\
8r	16gg\
.	16ff#\JJ
8r	16ee\LL
.	16dd\
8AA/	16cc#\
.	16b\JJ
8BB-/L	16a/LL
.	16g/
8Cn/J	16f#/
.	16e/JJ
=20	=20
!!pagebreak:original
*M4/4	*M4/4
8D-\	16r
.	16d/LL
8r	16e/
.	16f#/JJ
8BBB-/	16g/LL
.	16a/
8r	16b/
.	16cc#/JJ
2r	16dd\LL
.	16ee\
.	16ff#\
.	16gg\JJ
.	16aa\LL
.	16bb\
.	16ccc#\
.	16ddd\JJ
=21	=21
4r	16eee\LL
.	16fff#\
.	16ggg\
.	16aaa\J
8r	8bbb\
8AA\ 8A\	8cccc#\J
8DD/ 8D/	8dddd\
8r	8r
4r	4r
==	==
*-	*-
